packages/sources/icons/src/vitamix/lock-line.svg

<svg width="16" height="16" viewBox="0 0 16 16" xmlns="http://www.w3.org/2000/svg"><path fill-rule="evenodd" clip-rule="evenodd" d="M4 5.33331V5.99998H2.66667C2.29848 5.99998 2 6.29846 2 6.66665V14.6666C2 15.0348 2.29848 15.3333 2.66667 15.3333H13.3333C13.7015 15.3333 14 15.0348 14 14.6666V6.66665C14 6.29846 13.7015 5.99998 13.3333 5.99998H12V5.33331C12 3.12417 10.2091 1.33331 8 1.33331C5.79086 1.33331 4 3.12417 4 5.33331ZM3.33333 14V7.33331H12.6667V14H3.33333ZM7.33335 11.1546C6.81073 10.8529 6.55593 10.2377 6.71212 9.65484C6.86831 9.07193 7.39655 8.6666 8.00002 8.6666C8.6035 8.6666 9.13173 9.07193 9.28792 9.65484C9.44411 10.2377 9.18931 10.8529 8.66669 11.1546V12.6666H7.33335V11.1546ZM10.6667 5.33331V5.99998H5.33333V5.33331C5.33333 3.86055 6.52724 2.66665 8 2.66665C9.47276 2.66665 10.6667 3.86055 10.6667 5.33331Z"/></svg>

<svg width="16" height="16" xmlns="http://www.w3.org/2000/svg"><path fill-rule="evenodd" clip-rule="evenodd" d="M4 5.333V6H2.667A.667.667 0 0 0 2 6.667v8c0 .368.298.666.667.666h10.666a.667.667 0 0 0 .667-.666v-8A.667.667 0 0 0 13.333 6H12v-.667a4 4 0 0 0-8 0ZM3.333 14V7.333h9.334V14H3.333Zm4-2.845a1.333 1.333 0 1 1 1.334 0v1.512H7.333v-1.512Zm3.334-5.822V6H5.333v-.667a2.667 2.667 0 0 1 5.334 0Z"/></svg>
